PortableApps/LibreOfficePortable/App/libreoffice/help/media/icon-themes/cmd/lc_definename.svg

<svg viewBox="0 0 24 24" xmlns="http://www.w3.org/2000/svg"><path d="m13 3-4 3.6367188v1.8632812c0 .277-.223.5-.5.5h-2.0996094l-4.4003906 4 9 9 11-10v-9zm4 3c1.104569 0 2 .8954305 2 2s-.895431 2-2 2-2-.8954305-2-2 .895431-2 2-2z" fill="#fff"/><g fill="#808080"><path d="m13 3-4 3.6367188v1.3515624l4.386719-3.9882812h7.613281v7.558594l-9.966797 9.060547-7.5839842-7.583985 4.4375-4.035156h-1.4863282l-4.4003906 4 9 9 11-10v-9z" fill="#808080"/><path d="m17 6a2 2 0 0 0 -2 2 2 2 0 0 0 2 2 2 2 0 0 0 2-2 2 2 0 0 0 -2-2zm0 1a1 1 0 0 1 1 1 1 1 0 0 1 -1 1 1 1 0 0 1 -1-1 1 1 0 0 1 1-1z"/></g><g fill="#eac282"><path d="m2.4999352 7.4999941 5.0000589-5.0000589v5.0000589z" fill-rule="evenodd" stroke="#eac282" stroke-linecap="round" stroke-linejoin="round" stroke-width="1.000012"/><rect height="6" ry=".5" width="1" x="1" y="1"/><rect height="1" ry=".5" width="6" x="1" y="1"/></g></svg>

<svg viewBox="0 0 24 24" xmlns="http://www.w3.org/2000/svg">
  <path
     style="fill:#ffffff"
     d="M 13 3 L 2 13 L 11 22 L 22 12 L 22 3 L 13 3 z M 17 6 C 18.104569 6 19 6.8954305 19 8 C 19 9.1045695 18.104569 10 17 10 C 15.895431 10 15 9.1045695 15 8 C 15 6.8954305 15.895431 6 17 6 z " />
  <path
     style="fill:#808080"
     d="M 13,3 2,13 11,22 22,12 V 3 Z m 0.386719,1 H 21 v 7.558594 l -9.966797,9.060547 -7.5839842,-7.583985 z"
      />
  <path
     style="fill:#808080"
     d="m 17,6 a 2,2 0 0 0 -2,2 2,2 0 0 0 2,2 2,2 0 0 0 2,-2 2,2 0 0 0 -2,-2 z m 0,1 a 1,1 0 0 1 1,1 1,1 0 0 1 -1,1 1,1 0 0 1 -1,-1 1,1 0 0 1 1,-1 z" />
</svg>
